X:460
T:Mrs. H. L. MacDonald of Dunach 
C:Joe Buchanan's Scottish Tome - Page 341.0
I:341 0
R:Pipe March
Z:Carl Allison
L:1/16
M:2/4
K:D
(A>B) | "D" d2A>B d2f>g | "D" a2f>g a2f>d | "D" A>AA>B d2(e>f) | "G" g>fe<d "A7" B2(A>B) |
"D" d2A>B d2f>g | "D" A2(f>d) "A7" A>Bc>d | "D" e2A>c e>de<f | "D" {c}d4 d<d :|
"D" a2a>g (f<a)d>f | "G" A>AA>B "D" d2(A>d) | "A7" f>Ad>f a2(g>f) | "D" e>cA>c e2(f>g) |
"D" a>gf>e d2A2 | "G" B<dc>B "D" A>Bc>d | "A7" e2(A>c) e>de<f | edef  | {c}d4 d<d :|
(f>e) | "D" (d<f)A>d (d<f)A>d | "D" (f<a)g>e d2A>d | "D" (d<f)A>d (d<f)A>d | "A7" (c<e)(A>c) e>gc>e |
"D" (d<f)A>d (d<f)A>d | "D" (f<a)f>e d2c>d | "A7" e2(A>c) e>gf>e | "D" {c}d4 d<d :|
(f>g) | "D" a>f(d<A) d2f>g | "D" a>f(d<A) d2f>g | "A7" g>e(c<A) (c<e)A>c | "A7" g>e(c<A) (d<e)f>g |
"D" a>f(d<A) d2f>g | "D" a>f(d<A) d2f>g | "A7" g>e(c<A) (c<e)A>c | "D" {c}d4 d2 f<g |
"D" a>f(d<A) d2f>g | "D" a>f(d<A) d2f>g | "A7" g>e(c<A) (c<e)A>c | "A7" g>e(c<A) (d<e)f>g |
"D" a>gf>e d2A2 | "G" (B<d)c>B "D" A>Bc>d | "A7" e>cA>c e>gf>e | "D" {c}d4 d<d |]

